X: 40126
T: Tie The Bonnet
R: reel
M: 4/4
K: Dmajor
A2Ag fdec|A2A=c BEGB|A2Ag fdef|g/a/g/f/ gd BAA2:|
f>gaf gfed|cAea fce2|f>gaf gfef|g/a/g/f/ gd BAA2:|

